X:105
T: Cathrine Ogie
N: O'Farrell's Pocket Companion v.2 (Sky ed. p.59)
N: "Scotch"
M: C
L: 1/8
Q: 120 % "slow"
K: Am
A>G| E2 A>B A3B|c2 B>A A2 B>c|d3e dBA>B|G3A B2 A>G|
E2 A>B A3B|c>d B>c A2 g>f|e2 d/c/B c>d B>c|
A4 e2 :|
AB|c>d e>f g3a|g<ede g2 d>c|B2 g>e dBA>B|
G3A B/c/d c>B|c2 BA/B/ A3E|A>Bcd {d}e2 d>c|
d>eg>a g<e dB|A4 e2 :|
